src/assets/icons/opacity.svg

<?xml version="1.0" encoding="UTF-8"?>
<svg width="12px" height="13px" viewBox="0 0 12 13" version="1.1" xmlns="http://www.w3.org/2000/svg" xmlns:xlink="http://www.w3.org/1999/xlink">
    <!-- Generator: sketchtool 54.1 (76490) - https://sketchapp.com -->
    <title>7E2EAED6-AE95-4010-B825-8886592BC5C7</title>
    <desc>Created with sketchtool.</desc>
    <g id="UI-KIT" stroke="none" stroke-width="1" fill="none" fill-rule="evenodd">
        <g transform="translate(-1159.000000, -4695.000000)" fill="#FFFFFF" fill-rule="nonzero" id="Group-4-Copy-2" stroke="#FFFFFF" stroke-width="0.2">
            <g transform="translate(971.000000, 4683.000000)">
                <g id="legend/default">
                    <g id="icon/opacity/default" transform="translate(188.000000, 12.500000)">
                        <g id="iconopacitydefault" transform="translate(1.000000, 0.000000)">
                            <path d="M1.31188651,6.75245397 C1.31188651,8.92600522 3.07399478,10.6881135 5.24754603,10.6881135 C7.42109728,10.6881135 9.18320555,8.92600522 9.18320555,6.75245397 C9.18320555,5.47314165 7.91048562,3.65364076 5.24754603,1.44014736 C2.58460644,3.65402855 1.31188651,5.47314165 1.31188651,6.75245397 Z M5.24715824,12 C2.34921917,12 0,9.65078083 0,6.75284176 C0,4.92519733 1.56511201,2.73962465 4.69572383,0.195735949 C5.01720001,-0.0652453162 5.47750426,-0.0652453162 5.79859265,0.195735949 C8.92920447,2.73962465 10.4943165,4.92519733 10.4943165,6.75284176 C10.4943165,9.65078083 8.14509731,12 5.24715824,12 Z M5.25064833,3.50744472 L5.24715824,9.37622699 C6.69632167,9.37622699 7.87093126,8.2016174 7.87093126,6.75245397 C7.87093126,5.89738162 7.18571002,4.88525517 5.81449196,3.7164624 C5.65200882,3.57802212 5.45152247,3.5082203 5.25064833,3.50744472 L5.25064833,3.50744472 Z" id="Shape"></path>
                        </g>
                    </g>
                </g>
            </g>
        </g>
    </g>
</svg>

<svg width="24" height="14" xmlns="http://www.w3.org/2000/svg"><path d="M1.312 6.753a3.936 3.936 0 0 0 7.871 0c0-1.28-1.272-3.1-3.935-5.313-2.663 2.214-3.936 4.033-3.936 5.313zM5.247 12A5.247 5.247 0 0 1 0 6.753C0 4.925 1.565 2.74 4.696.196a.875.875 0 0 1 1.103 0c3.13 2.544 4.695 4.73 4.695 6.557A5.247 5.247 0 0 1 5.247 12zm.004-8.493l-.004 5.87a2.624 2.624 0 0 0 2.624-2.625c0-.855-.685-1.867-2.056-3.036a.873.873 0 0 0-.564-.209z" transform="matrix(1.1221 0 0 1.122 .112 .263)" fill="#fff" stroke="#fff" stroke-width=".2"/><path d="M1.312 6.753a3.936 3.936 0 0 0 7.871 0c0-1.28-1.272-3.1-3.935-5.313-2.663 2.214-3.936 4.033-3.936 5.313zM5.247 12A5.247 5.247 0 0 1 0 6.753C0 4.925 1.565 2.74 4.696.196a.875.875 0 0 1 1.103 0c3.13 2.544 4.695 4.73 4.695 6.557A5.247 5.247 0 0 1 5.247 12zm.004-8.493l-.004 5.87a2.624 2.624 0 0 0 2.624-2.625c0-.855-.685-1.867-2.056-3.036a.873.873 0 0 0-.564-.209z" transform="matrix(1.1221 0 0 1.1221 12.163 .286)" fill="#18bab4" stroke="#18bab4" stroke-width=".2"/><g><path fill="#fff" fill-rule="evenodd" d="M-8.372-9.14h12.64v8.124h-12.64z"/></g></svg>
